X:1     %Music
T:The Banks of Green Willow
M:3/4     %Meter
L:1/8     %
F:http://www.folkinfo.org/songs
B:Palmer, Roy, Bushes and Briars, LLanerch, 1999
Z:Vaughan Williams
S:David Clements, Basingstoke, 1909
K:Em
E2 |A2 c2 B2 |(A^G) E2 =G2 |G2 G2 A2 | (GF) HD2
w:It's of a sea cap-* tain lived near the sea side,_ oh,
 (3EF^G  |(A3F) G E |C2 D2 E2 |=F2 (BA) A^G | (F^G) A2  |]
w: And_ he cour-* ted a la-dy till she prov- ed with child_ oh. 